public/assets/images/hero-bg.svg

<svg xmlns="http://www.w3.org/2000/svg" width="960" height="540"><path fill="#020206" d="M0 0h960v540H0z"/><path d="m0 314 137 60 137-10 137-17 138 48 137-13 137 9 137 11v139H0Z"/><path fill="#6d0000" d="m0 365 137 61 137-70 137 33 138-20 137 5 137 4 137 12v151H0Z"/><path fill="#9d0000" d="m0 432 137 14 137 5 137-5 138-17h137l137 26 137-59v145H0Z"/><path fill="#c60707" d="m0 464 137-20 137 17 137-1 138 10 137-32 137 9 137-2v96H0Z"/><path fill="#f01010" d="m0 479 137 6 137 2 137 15 138-26 137 24 137 12 137-27v56H0Z"/></svg>

<svg id="visual" viewBox="0 0 960 540" width="960" height="540" xmlns="http://www.w3.org/2000/svg" xmlns:xlink="http://www.w3.org/1999/xlink" version="1.1"><rect x="0" y="0" width="960" height="540" fill="#020206"></rect><path d="M0 314L137 374L274 364L411 347L549 395L686 382L823 391L960 402L960 541L823 541L686 541L549 541L411 541L274 541L137 541L0 541Z" fill="#000000"></path><path d="M0 365L137 426L274 356L411 389L549 369L686 374L823 378L960 390L960 541L823 541L686 541L549 541L411 541L274 541L137 541L0 541Z" fill="#6d0000"></path><path d="M0 432L137 446L274 451L411 446L549 429L686 429L823 455L960 396L960 541L823 541L686 541L549 541L411 541L274 541L137 541L0 541Z" fill="#9d0000"></path><path d="M0 464L137 444L274 461L411 460L549 470L686 438L823 447L960 445L960 541L823 541L686 541L549 541L411 541L274 541L137 541L0 541Z" fill="#c60707"></path><path d="M0 479L137 485L274 487L411 502L549 476L686 500L823 512L960 485L960 541L823 541L686 541L549 541L411 541L274 541L137 541L0 541Z" fill="#f01010"></path></svg>
